icons/linear-new-people-refresh-exchange.svg

<svg xmlns="http://www.w3.org/2000/svg" width="32px" height="32px" viewBox="0 0 32 32" version="1.1">
    <title>linear-new-people-refresh-exchange</title>
    <g id="linear-new-people-refresh-exchange" stroke-width="1" fill-rule="evenodd">
        <path d="M15.5162589,17.9989396 C15.1028422,18.616363 14.7638058,19.2877953 14.5119702,20.0004159 L9,20 C7.34314575,20 6,21.3431458 6,23 L6,28 C6,28.5522847 5.55228475,29 5,29 C4.44771525,29 4,28.5522847 4,28 L4,23 C4,20.2385763 6.23857625,18 9,18 L15.5162589,17.9989396 Z M23,16 C26.8659932,16 30,19.1340068 30,23 L28,23 C28,20.2385763 25.7614237,18 23,18 C21.8282872,18 20.7507094,18.40304 19.8983395,19.0780471 L21.5,21 L16.2898925,20.9999537 C16.6375451,19.831853 17.2818944,18.7915355 18.1355486,17.9663928 C18.2543164,17.8515882 18.3772182,17.7408798 18.503941,17.6345778 L18.595,17.558 C18.6653127,17.5026241 18.7296332,17.4524394 18.7948388,17.4033678 L19.0383058,17.2281587 L19.2894255,17.0632745 L19.525379,16.9218652 L19.7430401,16.8022556 L20.0426277,16.6535573 L20.3216805,16.5306681 L20.629836,16.4114478 L20.9594922,16.3020688 L21.2330478,16.2249166 L21.4751749,16.1665572 L21.863,16.091 L22.2342357,16.0414048 L22.4706284,16.0197165 C22.5641961,16.0127204 22.6582765,16.0075636 22.7528334,16.0042822 L23,16 Z M16,2 C19.8659932,2 23,5.13400675 23,9 C23,12.8659932 19.8659932,16 16,16 C12.1340068,16 9,12.8659932 9,9 C9,5.13400675 12.1340068,2 16,2 Z M16,4 C13.2385763,4 11,6.23857625 11,9 C11,11.7614237 13.2385763,14 16,14 C18.7614237,14 21,11.7614237 21,9 C21,6.23857625 18.7614237,4 16,4 Z M24.4778749,29.843703 L24.322,29.874 L24.0197881,29.9262518 L23.59,29.975 L23.3147272,29.993051 L23,30 C19.1340068,30 16,26.8659932 16,23 L18,23 C18,25.7614237 20.2385763,28 23,28 C24.1714284,28 25.2487674,27.5971557 26.1010397,26.9224445 L24.5,25 L29.7098107,25.0010432 C29.3963006,26.0538495 28.8417629,27.0028197 28.1101941,27.7839573 L27.864,28.033 L27.6196247,28.2593087 L27.422,28.426 L27.195,28.604 L27.1071939,28.6690374 C26.9606726,28.7753756 26.8098682,28.8761722 26.6550886,28.9711195 L26.368,29.137 L26.1615405,29.2470574 C26.0313363,29.3130824 25.89879,29.3751563 25.7640594,29.4331216 L25.4807852,29.5476877 L25.2979318,29.6140919 L25.025414,29.7025049 L24.7929833,29.7682596 C24.6888775,29.7957655 24.5838215,29.8209331 24.4778749,29.843703 Z" id="&#24418;&#29366;" fill-rule="nonzero" />
    </g>
</svg>

<svg xmlns="http://www.w3.org/2000/svg" viewBox="0 0 32 32"><path fill="currentColor" d="M15.516 17.999A8.968 8.968 0 0 0 14.512 20H9a3 3 0 0 0-3 3v5a1 1 0 0 1-2 0v-5a5 5 0 0 1 5-5zM23 16a7 7 0 0 1 7 7h-2a5 5 0 0 0-8.102-3.922L21.5 21h-5.21a6.998 6.998 0 0 1 2.214-3.365l.091-.077c.07-.055.135-.106.2-.155l.243-.175.251-.165.236-.141.218-.12.3-.148.279-.123.308-.12.33-.109.273-.077.242-.058.388-.076.371-.05.237-.021c.093-.007.187-.012.282-.016zM16 2a7 7 0 1 1 0 14 7 7 0 0 1 0-14m0 2a5 5 0 1 0 0 10 5 5 0 0 0 0-10m8.478 25.844-.156.03-.302.052-.43.049-.275.018L23 30a7 7 0 0 1-7-7h2a5 5 0 0 0 8.101 3.922L24.5 25l5.21.001a6.992 6.992 0 0 1-1.6 2.783l-.246.249-.244.226-.198.167-.227.178-.088.065a7.012 7.012 0 0 1-.452.302l-.287.166-.206.11c-.13.066-.263.128-.398.186l-.283.115-.183.066-.273.089-.232.065c-.104.028-.21.053-.315.076"/></svg>
